static/img/kroki/8cb520d7cdc87e628111267535325dad.svg

<?xml version="1.0" encoding="us-ascii" standalone="no"?><svg xmlns="http://www.w3.org/2000/svg" xmlns:xlink="http://www.w3.org/1999/xlink" contentStyleType="text/css" height="374px" preserveAspectRatio="none" style="width:352px;height:374px;" version="1.1" viewBox="0 0 352 374" width="352px" zoomAndPan="magnify"><defs/><g><!--class account--><g id="elem_account"><rect codeLine="23" fill="#3D176E" height="39.7891" id="account" rx="2.5" ry="2.5" style="stroke:#000D19;stroke-width:0.5;" width="107" x="235.5" y="167.79"/><ellipse cx="250.5" cy="187.6845" fill="#ADD1B2" rx="11" ry="11" style="stroke:#181818;stroke-width:1.0;"/><path d="M253.4688,193.3252 Q252.8906,193.622 252.25,193.7627 Q251.6094,193.9189 250.9063,193.9189 Q248.4063,193.9189 247.0781,192.2783 Q245.7656,190.622 245.7656,187.497 Q245.7656,184.372 247.0781,182.7158 Q248.4063,181.0595 250.9063,181.0595 Q251.6094,181.0595 252.25,181.2158 Q252.9063,181.372 253.4688,181.6689 L253.4688,184.3877 Q252.8438,183.8095 252.25,183.5439 Q251.6563,183.2627 251.0313,183.2627 Q249.6875,183.2627 249,184.3408 Q248.3125,185.4033 248.3125,187.497 Q248.3125,189.5908 249,190.6689 Q249.6875,191.7314 251.0313,191.7314 Q251.6563,191.7314 252.25,191.4658 Q252.8438,191.1845 253.4688,190.6064 L253.4688,193.3252 Z " fill="#000000"/><text fill="#D9B8FF" font-family="Helvetica" font-size="17" lengthAdjust="spacing" textLength="65" x="269.5" y="193.5698">account</text></g><!--class onelogin_account--><g id="elem_onelogin_account"><rect codeLine="26" fill="#3D176E" height="39.7891" id="onelogin_account" rx="2.5" ry="2.5" style="stroke:#000D19;stroke-width:0.5;" width="188" x="45" y="328.58"/><ellipse cx="60" cy="348.4745" fill="#ADD1B2" rx="11" ry="11" style="stroke:#181818;stroke-width:1.0;"/><path d="M62.9688,354.1152 Q62.3906,354.412 61.75,354.5527 Q61.1094,354.7089 60.4063,354.7089 Q57.9063,354.7089 56.5781,353.0683 Q55.2656,351.412 55.2656,348.287 Q55.2656,345.162 56.5781,343.5058 Q57.9063,341.8495 60.4063,341.8495 Q61.1094,341.8495 61.75,342.0058 Q62.4063,342.162 62.9688,342.4589 L62.9688,345.1777 Q62.3438,344.5995 61.75,344.3339 Q61.1563,344.0527 60.5313,344.0527 Q59.1875,344.0527 58.5,345.1308 Q57.8125,346.1933 57.8125,348.287 Q57.8125,350.3808 58.5,351.4589 Q59.1875,352.5214 60.5313,352.5214 Q61.1563,352.5214 61.75,352.2558 Q62.3438,351.9745 62.9688,351.3964 L62.9688,354.1152 Z " fill="#000000"/><text fill="#D9B8FF" font-family="Helvetica" font-size="17" lengthAdjust="spacing" textLength="146" x="79" y="354.3598">onelogin_account</text></g><!--class onelogin_resource--><g id="elem_onelogin_resource"><rect codeLine="29" fill="#3D176E" height="39.7891" id="onelogin_resource" rx="2.5" ry="2.5" style="stroke:#000D19;stroke-width:0.5;" width="194" x="7" y="167.79"/><ellipse cx="22" cy="187.6845" fill="#ADD1B2" rx="11" ry="11" style="stroke:#181818;stroke-width:1.0;"/><path d="M24.9688,193.3252 Q24.3906,193.622 23.75,193.7627 Q23.1094,193.9189 22.4063,193.9189 Q19.9063,193.9189 18.5781,192.2783 Q17.2656,190.622 17.2656,187.497 Q17.2656,184.372 18.5781,182.7158 Q19.9063,181.0595 22.4063,181.0595 Q23.1094,181.0595 23.75,181.2158 Q24.4063,181.372 24.9688,181.6689 L24.9688,184.3877 Q24.3438,183.8095 23.75,183.5439 Q23.1563,183.2627 22.5313,183.2627 Q21.1875,183.2627 20.5,184.3408 Q19.8125,185.4033 19.8125,187.497 Q19.8125,189.5908 20.5,190.6689 Q21.1875,191.7314 22.5313,191.7314 Q23.1563,191.7314 23.75,191.4658 Q24.3438,191.1845 24.9688,190.6064 L24.9688,193.3252 Z " fill="#000000"/><text fill="#D9B8FF" font-family="Helvetica" font-size="17" lengthAdjust="spacing" textLength="152" x="41" y="193.5698">onelogin_resource</text></g><!--class resource--><g id="elem_resource"><rect codeLine="32" fill="#3D176E" height="39.7891" id="resource" rx="2.5" ry="2.5" style="stroke:#000D19;stroke-width:0.5;" width="113" x="232.5" y="7"/><ellipse cx="247.5" cy="26.8945" fill="#ADD1B2" rx="11" ry="11" style="stroke:#181818;stroke-width:1.0;"/><path d="M250.4688,32.5352 Q249.8906,32.832 249.25,32.9727 Q248.6094,33.1289 247.9063,33.1289 Q245.4063,33.1289 244.0781,31.4883 Q242.7656,29.832 242.7656,26.707 Q242.7656,23.582 244.0781,21.9258 Q245.4063,20.2695 247.9063,20.2695 Q248.6094,20.2695 249.25,20.4258 Q249.9063,20.582 250.4688,20.8789 L250.4688,23.5977 Q249.8438,23.0195 249.25,22.7539 Q248.6563,22.4727 248.0313,22.4727 Q246.6875,22.4727 246,23.5508 Q245.3125,24.6133 245.3125,26.707 Q245.3125,28.8008 246,29.8789 Q246.6875,30.9414 248.0313,30.9414 Q248.6563,30.9414 249.25,30.6758 Q249.8438,30.3945 250.4688,29.8164 L250.4688,32.5352 Z " fill="#000000"/><text fill="#D9B8FF" font-family="Helvetica" font-size="17" lengthAdjust="spacing" textLength="71" x="266.5" y="32.7798">resource</text></g><!--reverse link resource to account--><g id="link_resource_account"><path codeLine="35" d="M289,65.05 C289,95.57 289,136.9 289,167.46 " fill="none" id="resource-backto-account" style="stroke:#FFAF37;stroke-width:2.0;"/><polygon fill="none" points="289,47.05,283,65.05,295,65.05,289,47.05" style="stroke:#FFAF37;stroke-width:2.0;"/></g><!--reverse link account to onelogin_account--><g id="link_account_onelogin_account"><path codeLine="36" d="M258.5495,220.925 C229.7195,251.445 186.03,297.69 157.16,328.25 " fill="none" id="account-backto-onelogin_account" style="stroke:#FFAF37;stroke-width:2.0;"/><polygon fill="none" points="270.91,207.84,254.1878,216.8049,262.9112,225.0452,270.91,207.84" style="stroke:#FFAF37;stroke-width:2.0;"/></g><!--reverse link onelogin_resource to onelogin_account--><g id="link_onelogin_resource_onelogin_account"><path codeLine="37" d="M112.0961,225.4177 C118.8261,255.9377 128.03,297.69 134.76,328.25 " fill="none" id="onelogin_resource-backto-onelogin_account" style="stroke:#FFAF37;stroke-width:2.0;"/><polygon fill="none" points="108.22,207.84,106.2368,226.7097,117.9553,224.1257,108.22,207.84" style="stroke:#FFAF37;stroke-width:2.0;"/></g><!--SRC=[XP3DReCm48JlF8Mbd96WKKkGUacHglOILKtlbR7Nn09ij3QDqfztRoWXSamXnvtvj3ExEyc1GDtO0wcXpW5DO4gf6egq9cj4lSzqfP4iXA1YcVZcerRsAh2XDP0dg3x0IaPzucqdMQd067BZM0-KbGNgLl5-lKMgpD42PHqggwWnQsjHvgq5fmnFyvKGFkalNInvdDp12DF80Kz854KyJdtaQjJitMTYAp-1nExJDjh2gEOeue-QRTaHJidHeOC_sV65SYvLGMuTxRNlX0hmGj_kADVxZXQqCcwCiO2WxQ61R7GLf2ikad_XvoauODth26Niw5do5GG_9qahg7GXrVkSXs1qYmnSyr8xJ_VVOHWEGS6mj5Vzh60SC07-0W00]--></g></svg>

<svg xmlns="http://www.w3.org/2000/svg" width="352" height="374" viewBox="0 0 352 374"><rect width="107" height="39.789" x="235.5" y="167.79" fill="#3D176E" rx="2.5" ry="2.5" style="stroke:#000d19;stroke-width:.5"/><circle cx="250.5" cy="187.685" r="11" fill="#ADD1B2" style="stroke:#181818;stroke-width:1"/><path d="M253.469 193.325q-.578.297-1.219.438-.64.156-1.344.156-2.5 0-3.828-1.64-1.312-1.657-1.312-4.782t1.312-4.781q1.328-1.656 3.828-1.656.703 0 1.344.156.656.156 1.219.453v2.719q-.625-.578-1.219-.844-.594-.281-1.219-.281-1.344 0-2.031 1.078-.687 1.062-.687 3.156t.687 3.172q.688 1.062 2.031 1.062.625 0 1.219-.265.594-.281 1.219-.86z"/><text x="269.5" y="193.57" fill="#D9B8FF" font-family="Helvetica" font-size="17" textLength="65">account</text><rect width="188" height="39.789" x="45" y="328.58" fill="#3D176E" rx="2.5" ry="2.5" style="stroke:#000d19;stroke-width:.5"/><circle cx="60" cy="348.474" r="11" fill="#ADD1B2" style="stroke:#181818;stroke-width:1"/><path d="M62.969 354.115q-.578.297-1.219.438-.64.156-1.344.156-2.5 0-3.828-1.64-1.312-1.657-1.312-4.782t1.312-4.781q1.328-1.656 3.828-1.656.703 0 1.344.156.656.156 1.219.453v2.719q-.625-.579-1.219-.844-.594-.281-1.219-.281-1.343 0-2.031 1.078-.687 1.062-.687 3.156t.687 3.172q.688 1.062 2.031 1.062.625 0 1.219-.265.594-.281 1.219-.86z"/><text x="79" y="354.36" fill="#D9B8FF" font-family="Helvetica" font-size="17" textLength="146">onelogin_account</text><rect width="194" height="39.789" x="7" y="167.79" fill="#3D176E" rx="2.5" ry="2.5" style="stroke:#000d19;stroke-width:.5"/><circle cx="22" cy="187.685" r="11" fill="#ADD1B2" style="stroke:#181818;stroke-width:1"/><path d="M24.969 193.325q-.578.297-1.219.438-.64.156-1.344.156-2.5 0-3.828-1.64-1.312-1.657-1.312-4.782t1.312-4.781q1.328-1.656 3.828-1.656.703 0 1.344.156.656.156 1.219.453v2.719q-.625-.578-1.219-.844-.594-.281-1.219-.281-1.343 0-2.031 1.078-.687 1.062-.687 3.156t.687 3.172q.688 1.062 2.031 1.062.625 0 1.219-.265.594-.281 1.219-.86z"/><text x="41" y="193.57" fill="#D9B8FF" font-family="Helvetica" font-size="17" textLength="152">onelogin_resource</text><rect width="113" height="39.789" x="232.5" y="7" fill="#3D176E" rx="2.5" ry="2.5" style="stroke:#000d19;stroke-width:.5"/><circle cx="247.5" cy="26.895" r="11" fill="#ADD1B2" style="stroke:#181818;stroke-width:1"/><path d="M250.469 32.535q-.578.297-1.219.438-.64.156-1.344.156-2.5 0-3.828-1.64-1.312-1.657-1.312-4.782t1.312-4.781q1.328-1.656 3.828-1.656.703 0 1.344.156.656.156 1.219.453v2.719q-.625-.578-1.219-.844-.594-.281-1.219-.281-1.344 0-2.031 1.078-.687 1.062-.687 3.156t.687 3.172q.688 1.062 2.031 1.062.625 0 1.219-.265.594-.281 1.219-.86z"/><text x="266.5" y="32.78" fill="#D9B8FF" font-family="Helvetica" font-size="17" textLength="71">resource</text><path fill="none" d="M289 65.05v102.41m0-120.41-6 18h12z" style="stroke:#ffaf37;stroke-width:2"/><g fill="none"><path d="M258.55 220.925c-28.83 30.52-72.52 76.765-101.39 107.325" style="stroke:#ffaf37;stroke-width:2"/><path d="m270.91 207.84-16.722 8.965 8.723 8.24z" style="stroke:#ffaf37;stroke-width:2"/></g><path fill="none" d="M112.096 225.418c6.73 30.52 15.934 72.272 22.664 102.832m-26.54-120.41-1.983 18.87 11.718-2.584z" style="stroke:#ffaf37;stroke-width:2"/></svg>
